svgs/regular/temperature-list.svg

<svg xmlns="http://www.w3.org/2000/svg" viewBox="0 0 512 512"><!-- Font Awesome Pro 6.0.0-alpha2 by @fontawesome - https://fontawesome.com License - https://fontawesome.com/license (Commercial License) --><path d="M256 112C256 50.125 205.875 0 144 0S32 50.125 32 112V278.5C12.25 303.125 0 334 0 368C0 447.5 64.5 512 144 512S288 447.5 288 368C288 334 275.75 303.125 256 278.5V112ZM144 464C91.125 464 48 420.875 48 368C48 341 59.75 320.75 69.5 308.5L80 295.375V112C80 76.75 108.75 48 144 48S208 76.75 208 112V295.25L218.5 308.375C228.25 320.75 240 341 240 368C240 420.875 196.875 464 144 464ZM160 322.875V160C160 151.25 152.75 144 144 144S128 151.25 128 160V322.875C109.375 329.5 96 347.125 96 368C96 394.5 117.5 416 144 416S192 394.5 192 368C192 347.125 178.625 329.5 160 322.875ZM488 32H344C330.745 32 320 42.745 320 56V56C320 69.255 330.745 80 344 80H488C501.255 80 512 69.255 512 56V56C512 42.745 501.255 32 488 32ZM488 288H376C362.745 288 352 298.745 352 312V312C352 325.255 362.745 336 376 336H488C501.255 336 512 325.255 512 312V312C512 298.745 501.255 288 488 288ZM488 160H344C330.745 160 320 170.745 320 184V184C320 197.255 330.745 208 344 208H488C501.255 208 512 197.255 512 184V184C512 170.745 501.255 160 488 160Z"/></svg>

<svg xmlns="http://www.w3.org/2000/svg" viewBox="0 0 512 512"><!--! Font Awesome Pro 6.4.0 by @fontawesome - https://fontawesome.com License - https://fontawesome.com/license (Commercial License) Copyright 2023 Fonticons, Inc. --><path d="M256 112C256 50.1 205.9 0 144 0S32 50.1 32 112V278.5C12.2 303.1 0 334 0 368c0 79.5 64.5 144 144 144s144-64.5 144-144c0-34-12.2-64.9-32-89.5V112zM144 464c-52.9 0-96-43.1-96-96c0-27 11.8-47.3 21.5-59.5L80 295.4V112c0-35.3 28.8-64 64-64s64 28.7 64 64V295.2l10.5 13.1C228.2 320.7 240 341 240 368c0 52.9-43.1 96-96 96zm16-141.1V160c0-8.8-7.2-16-16-16s-16 7.2-16 16V322.9c-18.6 6.6-32 24.3-32 45.1c0 26.5 21.5 48 48 48s48-21.5 48-48c0-20.9-13.4-38.5-32-45.1zM488 32H344c-13.3 0-24 10.7-24 24s10.7 24 24 24H488c13.3 0 24-10.7 24-24s-10.7-24-24-24zm0 256H376c-13.3 0-24 10.7-24 24s10.7 24 24 24H488c13.3 0 24-10.7 24-24s-10.7-24-24-24zm0-128H344c-13.3 0-24 10.7-24 24s10.7 24 24 24H488c13.3 0 24-10.7 24-24s-10.7-24-24-24zM80 112c0-35.3 28.7-64 64-64s64 28.7 64 64V273.9c0 14.5 5.7 27.1 12.8 36.6c12 16 19.2 35.9 19.2 57.5c0 53-43 96-96 96s-96-43-96-96c0-21.6 7.1-41.5 19.2-57.5C74.3 301 80 288.4 80 273.9V112zM144 0C82.1 0 32 50.2 32 112V273.9c0 1.7-.7 4.4-3.2 7.8C10.7 305.7 0 335.7 0 368c0 79.5 64.5 144 144 144s144-64.5 144-144c0-32.4-10.7-62.3-28.8-86.4c-2.5-3.4-3.2-6.1-3.2-7.8V112C256 50.2 205.9 0 144 0zm0 416c26.5 0 48-21.5 48-48c0-20.9-13.4-38.7-32-45.3V176c0-8.8-7.2-16-16-16s-16 7.2-16 16V322.7c-18.6 6.6-32 24.4-32 45.3c0 26.5 21.5 48 48 48zM344 32c-13.3 0-24 10.7-24 24s10.7 24 24 24H488c13.3 0 24-10.7 24-24s-10.7-24-24-24H344zm0 128c-13.3 0-24 10.7-24 24s10.7 24 24 24H488c13.3 0 24-10.7 24-24s-10.7-24-24-24H344zm32 128c-13.3 0-24 10.7-24 24s10.7 24 24 24H488c13.3 0 24-10.7 24-24s-10.7-24-24-24H376z"/></svg>
